!!!COM:	Josquin des Prez
!!!CDT:	~1450-1521/08/27
!!!OPR:	Missa Ave maris stella
!!!ONM:	3
!!!OTL:	Credo
!!!AGN:	Mass; Credo
!!!SCT:	NJE 3.1
!!!SCA:	New Josquin Edition 3.1
!!!voices: 4
!!!voices-OPR:	4
**kern	**kern	**kern	**kern
*staff4	*staff3	*staff2	*staff1
*Ivox	*Ivox	*Ivox	*Ivox
*I"Bassus	*I"Tenor	*I"Altus	*I"Superius
*I'B	*I'T	*I'A	*I'S
*>[A,B]	*>[A,B]	*>[A,B]	*>[A,B]
*>Patrem[A]	*>Patrem[A]	*>Patrem[A]	*>Patrem[A]
*>Et_incarnatus_est[B]	*>Et_incarnatus_est[B]	*>Et_incarnatus_est[B]	*>Et_incarnatus_est[B]
*clefF4	*clefGv2	*clefGv2	*clefG2
*k[b-]	*k[b-]	*k[b-]	*k[b-]
*M3/1	*M3/1	*M3/1	*M3/1
*met(O)	*met(O)	*met(O)	*met(O)
*>A	*>A	*>A	*>A
=1-	=1-	=1-	=1-
!!section: Patrem
!!!OMD: Patrem
0.r	0.r	1G	0.r
.	.	1d	.
.	.	1d	.
=2	=2	=2	=2
0.r	0.r	1e	1g
.	.	2d\	1dd
.	.	1f	.
.	.	.	1dd
.	.	4e\	.
.	.	4d\	.
=3	=3	=3	=3
0.r	0.r	1c	1ee
.	.	2r	2dd\
.	.	2d\	1ff
.	.	2d\	.
.	.	2d\	4ee\
.	.	.	4dd\
=4	=4	=4	=4
0.r	0.r	2e\	1cc
.	.	2f\	.
.	.	2e\	2r
.	.	2.f\	2dd\
.	.	.	2dd\
.	.	4e\	.
.	.	2d\	2dd\
=5	=5	=5	=5
0.r	0.r	2c\	2ee\
.	.	2A/	2.ff\
.	.	1B-	.
.	.	.	4ee\
.	.	.	2dd\
.	.	1A	2cc\
.	.	.	2a/
=6	=6	=6	=6
0.r	0.r	2r	1b-
.	.	2.d\	.
.	.	.	1a
.	.	4d\	.
.	.	2d\	.
.	.	2B-\	2r
.	.	2G/	[2dd\
=7	=7	=7	=7
0.r	0.r	2.B-\	4dd\]
.	.	.	4dd\
.	.	.	2dd\
.	.	4c\	.
.	.	2d\	2b-\
.	.	2e-i\	2g/
.	.	2d\	2.b-\
.	.	2g\	.
.	.	.	4cc\
=8	=8	=8	=8
0.r	0.r	2f\	2dd\
.	.	2.g\	2ee-i\
.	.	.	2dd\
.	.	4f\	.
.	.	2.d\	2.ff\
.	.	4c\	4ee-i\
.	.	[2e-\	2cc\
=9	=9	=9	=9
0.r	0.r	4e-\]	2b-\
.	.	4d\	.
.	.	2.B-\	2.dd\
.	.	4A/	4cc\
.	.	2.c\	2a/
.	.	.	2g/
.	.	4B-\	.
.	.	2G/	[2b-\
=10	=10	=10	=10
0.r	0.r	2B-\	4b-\]
.	.	.	4a/
.	.	2.A/	2f/
.	.	.	1g
.	.	4G/	.
.	.	1g	.
.	.	.	1a
.	.	2f#i\	.
=11	=11	=11	=11
0.r	0.r	1g	2g/
.	.	.	2dd\
.	.	1r	2cc\
.	.	.	1b-
.	.	1G	.
.	.	.	4a/
.	.	.	4g/
=12	=12	=12	=12
1r	0.r	1d	0a
1r	.	2d\	.
.	.	2d\	.
1D	.	2d\	1r
.	.	2d\	.
=13	=13	=13	=13
1A	0.r	0e	2.cc\
.	.	.	4cc\
2A\	.	.	2cc\
2A\	.	.	2cc\
2A\	.	1c	2cc\
2A\	.	.	2cc\
=14	=14	=14	=14
2B-\	0.G	1d	2b-\
2G\	.	.	1dd
2B-\	.	0g	.
2c\	.	.	2cc\
1d	.	.	1b-
=15	=15	=15	=15
0D	0.d	1f	1.a
.	.	2d\	.
.	.	1f	4g/
.	.	.	4f/
1r	.	.	2.a/
.	.	4e\	.
.	.	4d\	4b-\
=16	=16	=16	=16
0.A	0e	2c\	1cc
.	.	2A/	.
.	.	2.c\	0cc
.	.	4d\	.
.	1c	2e\	.
.	.	[2f\	.
=17	=17	=17	=17
0.B-	1d	4f\]	2f/
.	.	4e\	.
.	.	4d\	2.ff\
.	.	4c\	.
.	0f	2d\	.
.	.	.	4ee\
.	.	2B-\	2.dd\
.	.	1d	.
.	.	.	4cc\
.	.	.	2dd\
=18	=18	=18	=18
2.c\	0.e	2r	2g/
.	.	1c	1cc
4B-\	.	.	.
2A\	.	.	.
2G\	.	2g\	2b-\
1c	.	2e\	2.g/
.	.	2c\	.
.	.	.	4a/
=19	=19	=19	=19
2B-\	0.f	2d\	2b-\
2.A\	.	2.c\	1cc
4F\	.	4A/	.
2B-\	.	1d	2f/
1A	.	.	1cc
.	.	2c\	.
=20	=20	=20	=20
1G	2.g\	2d\	1b-
.	.	2G/	.
.	4f\	.	.
2r	2e\	2A/	2cc\
2.G\	2d\	2B-\	1dd
.	1g	2G/	.
4F\	.	.	.
4G\	.	[2d\	4cc\
4A\	.	.	4b-\
=21	=21	=21	=21
2B-\	2f\	4d\]	2dd\
.	.	4c\	.
2c\	2.e\	2.A/	2.cc\
2A\	.	.	.
.	4c\	4G/	4a/
2F\	2f\	2A/	1dd
2G\	1e	2B-\	.
2A\	.	2c\	2cc#i\
=22	=22	=22	=22
1D	[0.d	2A/	0.dd
.	.	1f	.
2r	.	.	.
2G\	.	2g\	.
2G\	.	2d\	.
2G\	.	2g\	.
=23	=23	=23	=23
2.B-\	0.d]	2f\	1r
.	.	2.b-\	.
4A\	.	.	.
4G\	.	.	2r
4F\	.	4a\	.
1G	.	4g\	2dd\
.	.	4f\	.
.	.	1g	2dd\
4F\	.	.	2dd\
4E\	.	.	.
=24	=24	=24	=24
2D\	1r	0f	2.ff\
4d\	.	.	.
4c\	.	.	4ee\
4B-\	2r	.	4dd\
4A\	.	.	4cc\
1B-	2d\	.	1dd
.	2d\	1B-	.
4A\	2d\	.	4cc\
4G\	.	.	4b-\
=25	=25	=25	=25
2F\	2.f\	0.r	2a/
2BB-/	.	.	2.d/
.	4e\	.	.
2.B-\	4d\	.	.
.	4c\	.	4e/
.	1d	.	4f/
4A\	.	.	4g/
2F\	.	.	2a/
2G\	4c\	.	2b-\
.	4B-\	.	.
=26	=26	=26	=26
2A\	1A	2r	2cc\
2.D\	.	2d\	2.f/
.	1r	2d\	.
4E\	.	.	4g/
2G\	.	2d\	2b-\
2F\	1r	2.f\	2a/
2BB-/	.	.	[2d/
.	.	4e\	.
=27	=27	=27	=27
2.B-\	0.r	4d\	4d/]
.	.	4c\	4e/
.	.	1d	4f/
4A\	.	.	4g/
2F\	.	.	4a/
.	.	.	4b-\
2G\	.	2B-\	1g
1D	.	1A	.
.	.	.	2f#i/
=28	=28	=28	=28
2G\	2r	0G	1g
2G\	2d\	.	.
2G\	2d\	.	1r
2.B-\	2d\	.	.
.	2.f\	1r	1r
4A\	.	.	.
2F\	.	.	.
.	4e\	.	.
=29	=29	=29	=29
2.G\	4d\	0.r	0.r
.	4c\	.	.
.	1d	.	.
4F\	.	.	.
2D\	.	.	.
1G	2B-\	.	.
.	1A	.	.
2F#i\	.	.	.
=30	=30	=30	=30
0.G	0G	1r	2r
.	.	.	2dd\
.	.	2r	2dd\
.	.	2g\	2dd\
.	1r	2g\	2.b-\
.	.	2g\	.
.	.	.	4g/
=31	=31	=31	=31
0.r	0.r	2.e\	1g
.	.	4c\	.
.	.	2c\	2g/
.	.	2c\	2a/
.	.	2d\	2b-\
.	.	2e\	[2cc\
=32	=32	=32	=32
0.r	0.r	2.f\	4cc\]
.	.	.	4cc\
.	.	.	2cc\
.	.	4f\	.
.	.	2f\	2a/
.	.	2d\	2b-\
.	.	2e\	2cc\
.	.	2f\	[2dd\
=33	=33	=33	=33
0.r	0.r	2g\	2dd\]
.	.	2c\	2cc\
.	.	2d\	2b-\
.	.	2e\	2g/
.	.	1f	1a
=34	=34	=34	=34
0.r	2.B-\	0f	1d
.	4B-\	.	.
.	2B-\	.	2r
.	2B-\	.	2.dd\
.	1B-	2r	.
.	.	.	4dd\
.	.	[2f\	2dd\
=35	=35	=35	=35
2.F\	2A/	4f\]	2cc\
.	.	4f\	.
.	4F/	2f\	2.a/
4F\	4G/	.	.
2F\	4A/	2f\	.
.	4B-\	.	4g/
2F\	1c	2f\	4a/
.	.	.	4b-\
1F	.	2.c\	2.cc\
.	2A/	.	.
.	.	4d\	4b-\
=36	=36	=36	=36
2E\	2.c\	4e\	1g
.	.	4f\	.
4C/	.	1g	.
4D\	4B-\	.	.
4E\	1G	.	1r
4F\	.	.	.
1G	.	2d\	.
.	2r	2.g\	2r
2E\	2G/	.	2g/
.	.	4f\	.
=37	=37	=37	=37
2.G\	2B-\	2d\	2g/
.	2c\	2G/	2g/
4F\	.	.	.
1D	2d\	2.A/	2f/
.	2f\	.	2a/
.	.	4B-\	.
2r	2e\	2c\	2g/
2D\	[2f\	2A/	[2a/
=38	=38	=38	=38
2F\	4f\]	2a\	4a/]
.	4e\	.	4cc\
2G\	2d\	2g\	4b-\
.	.	.	4a/
2A\	1c	1e	2cc\
2c\	.	.	2g/
2B-\	1r	2d\	2r
[2c\	.	[2e\	2g/
=39	=39	=39	=39
4c\]	1c	4e\]	2a/
4B-\	.	4d\	.
2A\	.	4e\	2cc\
.	.	4f\	.
1G	2d\	2g\	2b-\
.	2B-\	2d\	2dd\
1r	2c\	2e\	2cc\
.	[2d\	2f\	2a/
=40	=40	=40	=40
1G	4d\]	1B-	2r
.	4c\	.	.
.	2B-\	.	2dd\
2A\	1A	2c\	2cc\
2F\	.	1d	2a/
2G\	2B-\	.	2dd\
[2A\	2c\	2A/	[2cc\
=41	=41	=41	=41
4A\]	2A/	1c	4cc\]
4G\	.	.	4b-\
2F\	1c	.	2a/
2.E-\	.	2r	2.g/
.	2.B-\	2G/	.
4D\	.	.	4f/
2BB-/	.	2B-\	4d/
.	4A/	.	4c/
2D\	2F/	2A/	[2f/
=42	=42	=42	=42
1C	1G	0.c	2f/]
.	.	.	2e/
1r	1F	.	1f
1F	2r	.	1f
.	2A/	.	.
=43	=43	=43	=43
2F\	2A/	0.r	0.r
1G	1B-	.	.
2F\	2A/	.	.
2G\	2B-\	.	.
2A\	2c\	.	.
=44	=44	=44	=44
2.F\	0A	1r	1r
4D\	.	.	.
1D	.	2f\	2a/
.	.	2f\	2a/
1r	1r	2f\	2a/
.	.	[2g\	[2b-\
=45	=45	=45	=45
1r	0.r	2g\]	2b-\]
.	.	2f\	2a/
1r	.	2g\	2b-\
.	.	2a\	2cc\
2r	.	4f\	2.a/
.	.	4d\	.
2D\	.	[2f\	.
.	.	.	4g/
=46	=46	=46	=46
2.F\	2r	4f\]	4a/
.	.	4e\	4b-\
.	2A/	4c\	2.cc\
4E\	.	4d\	.
2.C/	2.c\	4e\	.
.	.	4f\	4b-\
.	.	2g\	2.g/
4D\	4B-\	.	.
4E\	2G/	2r	.
4F\	.	.	4f/
2G\	2B-\	2G/	4d/
.	.	.	4e/
=47	=47	=47	=47
2.F\	2A/	2A/	4f/
.	.	.	4g/
.	2.c\	2F/	2.a/
4E\	.	.	.
2C/	.	1c	.
.	4B-\	.	4g/
2E\	2G/	.	1g
1D	1A	1d	.
.	.	.	2f#i/
=48	=48	=48	=48
0.Gl	0.Gl	0.Gl	0.gl
!!LO:LB:i:g=z
=49||	=49||	=49||	=49||
*>B	*>B	*>B	*>B
!!section: Et incarnatus est
!!!OMD: Et incarnatus est
*M2/1	*M2/1	*M2/1	*M2/1
*met(C|)	*met(C|)	*met(C|)	*met(C|)
1r	1G	0r	0r
1G	2d\	.	.
.	2d\	.	.
=50	=50	=50	=50
2G\	1e	0r	0r
2G\	.	.	.
1A	1c	.	.
=51	=51	=51	=51
1F	1d	0r	1r
1G	1r	.	2r
.	.	.	2g/
=52	=52	=52	=52
0r	0r	2r	2dd\
.	.	2g\	2dd\
.	.	2g\	1ee
.	.	2g\	.
=53	=53	=53	=53
0r	0r	1a	1cc
.	.	1f	2.dd\
.	.	.	4cc\
=54	=54	=54	=54
2r	0r	1.g	4b-\
.	.	.	4a/
2G\	.	.	1b-
2G\	.	.	.
2A\	.	4f\	4a/
.	.	4e\	4g/
=55	=55	=55	=55
1.B-	2r	1d	1f
.	2d\	.	.
.	2d\	1G	1r
4A\	2e\	.	.
4G\	.	.	.
=56	=56	=56	=56
2A\	1.f	0r	0r
2F\	.	.	.
2A\	.	.	.
2B-\	4e\	.	.
.	4d\	.	.
=57	=57	=57	=57
1.c	2e\	1r	2r
.	2c\	.	2g/
.	2e\	1c	2g/
4B-\	2f\	.	2a/
4A\	.	.	.
=58	=58	=58	=58
1.G	1.g	2d\	2.b-\
.	.	2G/	.
.	.	.	4cc\
.	.	2B-\	4dd\
.	.	.	4ee\
2D\	2f\	2A/	[2ff\
=59	=59	=59	=59
2.F\	2d\	1.a	4ff\]
.	.	.	4ee\
.	2f\	.	1dd
4G\	.	.	.
1A	1e	.	.
.	.	4g\	2cc#i\
.	.	4a\	.
=60	=60	=60	=60
0D	0d	1f	1dd
.	.	2r	2r
.	.	2d\	2dd\
=61	=61	=61	=61
0r	0r	2e\	2g/
.	.	2f\	2a/
.	.	2g\	2b-\
.	.	2e\	2cc\
=62	=62	=62	=62
1r	1r	0f	1a
2r	2r	.	2r
2D\	2d\	.	2a/
=63	=63	=63	=63
2E\	2G/	2r	2g/
2F\	2A/	2f\	2cc\
2G\	2B-\	2d\	2b-\
2E\	2c\	2e\	2g/
=64	=64	=64	=64
1.F	[0A;	1.c	1.a
2D\	.	2d\	2f/
=65	=65	=65	=65
0D;	0A]	0d;	0f;
=66	=66	=66	=66
0r	1G	1r	0r
.	1B-	1d	.
=67	=67	=67	=67
0r	1B-	1f	0r
.	1A	1f	.
=68	=68	=68	=68
0r	2r	1e	0r
.	2A/	.	.
.	2A/	2r	.
.	[2c\	2e\	.
=69	=69	=69	=69
0r	2c\]	2e\	0r
.	4B-\	1g	.
.	4A/	.	.
.	2.G/	.	.
.	.	4f\	.
.	4A/	4e\	.
=70	=70	=70	=70
0r	4B-\	2d\	0r
.	4c\	.	.
.	1d	2f\	.
.	.	1e	.
.	2c#i\	.	.
=71	=71	=71	=71
0r	1d	2d\	0r
.	.	2d\	.
.	2r	2d\	.
.	2d\	2d\	.
=72	=72	=72	=72
0r	2d\	2.G/	0r
.	2d\	.	.
.	.	4A/	.
.	2G/	4B-\	.
.	.	4c\	.
.	[2B-\	[2d\	.
=73	=73	=73	=73
0r	4B-\]	4d\]	0r
.	4c\	4c\	.
.	2A/	1f	.
.	1G	.	.
.	.	2e\	.
=74	=74	=74	=74
2r	1F	2f\	1.a
1F	.	1f	.
.	2.A/	.	.
2F\	.	2f\	2a/
.	4B-\	.	.
=75	=75	=75	=75
2F\	2c\	2.f\	2a/
2F\	2A/	.	2a/
.	.	4e\	.
2G\	2B-\	2d\	2g/
2A\	2c\	2c#i\	2e/
=76	=76	=76	=76
0Dl	0Al	0dl	0fl
=77	=77	=77	=77
*M3/1	*M3/1	*M3/1	*M3/1
*met(3)	*met(3)	*met(3)	*met(3)
1r	0G	0B-	0.r
0G	.	.	.
.	1d	1B-	.
=78	=78	=78	=78
1G	1d	1B-	0.r
1G	1.e	1B-	.
[1A	.	[1c	.
.	2c\	.	.
=79	=79	=79	=79
2A\]	0c	2c\]	0.r
2F\	.	2A/	.
0F	.	0A	.
.	1d	.	.
=80	=80	=80	=80
1G	1e	1B-	0.r
1A	1.f	1c	.
1F	.	1A	.
.	2d\	.	.
=81	=81	=81	=81
1G	1e	1B-	0.r
1A	1f	1c	.
1B-	[1g	[1d	.
=82	=82	=82	=82
0G	1g]	1d]	0.r
.	1g	1B-	.
1B-	1g	1d	.
=83	=83	=83	=83
1A	1f	1c	0.r
1.G	1.e	1.B-	.
2F\	2d\	2A/	.
=84	=84	=84	=84
1D	0d	0A	0.r
0E	.	.	.
.	1c#i	1G	.
=85	=85	=85	=85
*M2/1	*M2/1	*M2/1	*M2/1
*met(C|)	*met(C|)	*met(C|)	*met(C|)
0D	0d	2B-\	2r
.	.	1A	2d/
.	.	.	2a/
.	.	2F/	2a/
=86	=86	=86	=86
0r	2r	2G/	2b-\
.	2G/	2E/	2g/
.	2d\	1D	2.a/
.	2d\	.	.
.	.	.	4b-\
=87	=87	=87	=87
2r	2e\	1A	1cc
2A\	2c\	.	.
2B-\	2.d\	1r	1r
2G\	.	.	.
.	4e\	.	.
=88	=88	=88	=88
2A\	1f	2r	1r
2B-\	.	2d\	.
2c\	1r	2e\	2r
2A\	.	2f\	2a/
=89	=89	=89	=89
1G	1r	2g\	2b-\
.	.	2e\	2g/
1r	2r	2.f\	2a/
.	2d\	.	2b-\
.	.	4d\	.
=90	=90	=90	=90
1r	2e\	2c\	2cc\
.	2f\	2d\	2a/
2r	2g\	1G	1g
2G\	2e\	.	.
=91	=91	=91	=91
2A\	2f\	1r	0r
2B-\	2d\	.	.
2c\	1c	2r	.
2A\	.	2c\	.
=92	=92	=92	=92
2B-\	0r	2d\	2r
2G\	.	2e\	2g/
1F	.	2f\	2a/
.	.	2d\	2f/
=93	=93	=93	=93
0r	0r	2e\	2g/
.	.	2c\	2a/
.	.	2d\	1b-
.	.	2e\	.
=94	=94	=94	=94
1.D	1.d	1f	2r
.	.	.	1a
.	.	2.f\	.
2D\	2d\	.	2a/
.	.	4f\	.
=95	=95	=95	=95
2D\	2d\	2f\	2a/
2E\	2G/	2g\	2g/
2F\	2A/	2f\	2.cc\
2G\	2B-\	2d\	.
.	.	.	4b-\
=96	=96	=96	=96
1C	2.c\	1e-i	4a/
.	.	.	4g/
.	.	.	2.g/
.	4B-\	.	.
1D	1A	1d	.
.	.	.	4f#i/
.	.	.	4f#i/
.	.	.	4e/
=97	=97	=97	=97
2E-i\	0G	2B-\	0g
2.C/	.	2.c\	.
4D\	.	4B-\	.
4E-i\	.	[2G/	.
4F\	.	.	.
=98	=98	=98	=98
2.G\	0r	4G/]	1r
.	.	4A/	.
.	.	4B-\	.
4A\	.	4c\	.
4B-\	.	4d\	1r
4c\	.	4e\	.
[2d\	.	4f\	.
.	.	4g\	.
=99	=99	=99	=99
2d\]	0r	4a\	0r
.	.	4b-\	.
2B-\	.	2.g\	.
1A	.	.	.
.	.	4f#i\	.
.	.	4f#i\	.
.	.	4e\	.
=100	=100	=100	=100
0G	0r	0g	1r
.	.	.	2r
.	.	.	2g/
=101	=101	=101	=101
0r	0r	2r	2b-\
.	.	2d\	2.a/
.	.	2f\	.
.	.	.	4b-\
.	.	[2e\	2cc\
=102	=102	=102	=102
1r	2r	4e\]	1g
.	.	4f\	.
.	2G/	2g\	.
2r	2B-\	1d	1r
2D\	[2A/	.	.
=103	=103	=103	=103
2F\	4A/]	1r	0r
.	4B-\	.	.
2.E\	2c\	.	.
.	1G	2r	.
4F\	.	.	.
2G\	.	2d\	.
=104	=104	=104	=104
2D\	0r	2f\	0r
2A\	.	2.e\	.
2c\	.	.	.
.	.	4f\	.
[2B-\	.	2g\	.
=105	=105	=105	=105
4B-\]	2r	1d	1r
4c\	.	.	.
2d\	2B-\	.	.
2A\	2c\	2e\	2r
2D\	[2d\	[2f\	2a/
=106	=106	=106	=106
2.d\	4d\]	4f\]	2a/
.	4c\	4e\	.
.	4B-\	2f\	2.dd\
4c\	4A/	.	.
4B-\	2G/	2g\	.
4A\	.	.	4cc\
4G\	[2B-\	2d\	4b-\
4F\	.	.	4a/
=107	=107	=107	=107
2E\	4B-\]	2e\	2g/
.	4c\	.	.
2F\	2A/	2.c\	2.f/
1C	1G	.	.
.	.	4B-\	4e/
.	.	2c\	4e/
.	.	.	4d/
=108	=108	=108	=108
0r	1F	2A/	2f/
.	.	2f\	2a/
.	1r	2g\	2b-\
.	.	2e\	2cc\
=109	=109	=109	=109
2r	2r	1f	1a
2F\	2A/	.	.
2G\	2B-\	1r	1r
2E\	2c\	.	.
=110	=110	=110	=110
2F\	2A/	2r	2r
2F\	2c\	2f\	2a/
2G\	2B-\	2d\	2b-\
2E\	2c\	2e\	2g/
=111	=111	=111	=111
2F\	2A/	2c\	2a/
2D\	2B-\	2d\	2f/
1E	2G/	2B-\	2.g/
.	[2B-\	2G/	.
.	.	.	4e/
=112	=112	=112	=112
0D	2B-\]	0d	2f/
.	4A/	.	2.g/
.	4G/	.	.
.	1A	.	.
.	.	.	4f#i/
.	.	.	4f#i/
.	.	.	4e/
=113	=113	=113	=113
0r	2G/	0r	2g/
.	2G/	.	2b-\
.	2d\	.	2a/
.	2d\	.	2f/
=114	=114	=114	=114
0r	2e\	0r	2g/
.	2c\	.	2a/
.	2d\	.	2b-\
.	2e\	.	2g/
=115	=115	=115	=115
2r	2f\	2r	2a/
1B-	1d	1f	1dd
2B-\	2d\	2f\	2dd\
=116	=116	=116	=116
2B-\	2d\	2.g\	2dd\
2c\	2e\	.	2.cc\
.	.	4f\	.
2A\	2f\	2c\	.
.	.	.	4a/
2G\	2g\	2d\	2b-\
=117	=117	=117	=117
1.c	2r	2r	2cc\
.	1g	1e	2g/
.	.	.	1r
2B-\	2g\	2d\	.
=118	=118	=118	=118
2A\	2.f\	2c\	0r
2G\	.	2B-\	.
.	4e\	.	.
2F\	2d\	2A/	.
2E\	2c#i\	2G/	.
=119	=119	=119	=119
1D	1d	1A	0r
[1B-	2r	2r	.
.	[2d\	[2f\	.
=120	=120	=120	=120
2B-\]	2d\]	4f\]	2.dd\
.	.	4f\	.
2B-\	2d\	2f\	.
.	.	.	4dd\
2B-\	2d\	2f\	2dd\
2B-\	2G/	2g\	2dd\
=121	=121	=121	=121
2A\	2A/	2c\	2cc\
2G\	2B-\	2d\	2b-\
2F\	2c\	1f	4a/
.	.	.	4g/
2D\	2d\	.	[2b-\
=122	=122	=122	=122
1E	1G	2.B-\	4b-\]
.	.	.	4a/
.	.	.	1g
.	.	4c\	.
1D	1A	1d	.
.	.	.	2f#i/
=123	=123	=123	=123
0r	1G	2r	2g/
.	.	2d\	2r
.	1r	2e\	2g/
.	.	2f\	2a/
=124	=124	=124	=124
0r	0r	2g\	2b-\
.	.	2e\	2cc\
.	.	2f\	2a/
.	.	2g\	2b-\
=125	=125	=125	=125
1r	2r	2a\	2cc\
.	2B-\	2d\	2dd\
2r	2c\	1r	2g/
2D\	2d\	.	2r
=126	=126	=126	=126
2E-i\	2G/	1r	0r
2D\	2A/	.	.
2BB-/	2B-\	2r	.
2C/	2A/	2e\	.
=127	=127	=127	=127
2.D\	2F/	2f\	1r
.	2G/	2e\	.
4E\	.	.	.
2.F\	2A/	2c\	2r
.	2F/	2d\	[2a/
4E\	.	.	.
=128	=128	=128	=128
2C/	1G	2e\	4a/]
.	.	.	4g/
2E\	.	2c\	1g
1D	1A	1d	.
.	.	.	2f#i/
=129	=129	=129	=129
2r	1G	1B-	0g
2d\	.	.	.
2d\	1r	1G	.
2d\	.	.	.
=130	=130	=130	=130
2.B-\	0G	2r	1r
.	.	2d\	.
4G\	.	.	.
1G	.	2d\	2r
.	.	2d\	2dd\
=131	=131	=131	=131
2r	0d	2.B-\	2dd\
2G\	.	.	2dd\
.	.	4G/	.
2G\	.	1G	2.b-\
2G\	.	.	.
.	.	.	4g/
=132	=132	=132	=132
2.E\	0e	2r	1g
.	.	2c\	.
4C/	.	.	.
1C	.	2c\	2r
.	.	2c\	2cc\
=133	=133	=133	=133
2r	0c	2.A/	2cc\
2F\	.	.	2cc\
.	.	4F/	.
2F\	.	1F	2.a/
2F\	.	.	.
.	.	.	4f/
=134	=134	=134	=134
2.D\	0d	2r	0f
.	.	2f\	.
4BB-/	.	.	.
1BB-	.	2f\	.
.	.	2f\	.
=135	=135	=135	=135
2r	0f	2.d\	1r
2d\	.	.	.
.	.	4B-\	.
2d\	.	1B-	2r
2d\	.	.	2dd\
=136	=136	=136	=136
2.B-\	0d	0r	2dd\
.	.	.	2dd\
4G\	.	.	.
1G	.	.	2.b-\
.	.	.	4g/
=137	=137	=137	=137
2r	0e	2c\	2g/
2A\	.	2c\	2cc\
2A\	.	2c\	2cc\
2A\	.	[2A/	2cc\
=138	=138	=138	=138
2.F\	1f	4A/]	2.a/
.	.	4F/	.
.	.	2F/	.
4D\	.	.	4f/
1D	2r	2r	1f
.	2f\	2d\	.
=139	=139	=139	=139
1r	2.g\	2.e-\	1r
.	4f\	4d\	.
2r	2e\	2c\	2r
2G\	2d\	2B-\	2b-\
=140	=140	=140	=140
2.A\	1c	1A	2.cc\
4G\	.	.	4b-\
2F\	2r	1r	2a/
2E\	2c\	.	2g/
=141	=141	=141	=141
1D	2.d\	0r	0f
.	4c\	.	.
2r	2B-\	.	.
2D\	2A/	.	.
=142	=142	=142	=142
1E-i	2.G/	1r	1r
.	4A/	.	.
1E-i	2B-\	2r	2r
.	2c\	2G/	2g/
=143	=143	=143	=143
0D	2F/	1d	2a/
.	2G/	.	2.g/
.	1A	2.d\	.
.	.	.	4f#i/
.	.	.	4f#i/
.	.	4c\	4e/
=144	=144	=144	=144
0r	0G	4B-\	1g
.	.	4A/	.
.	.	1B-	.
.	.	.	1b-
.	.	4A/	.
.	.	4G/	.
=145	=145	=145	=145
1r	0r	2F/	1a
.	.	1f	.
1F	.	.	1cc
.	.	[2c\	.
=146	=146	=146	=146
1E	1r	2c\]	1g
.	.	1e	.
1G	2r	.	1b-
.	[2B-\	[2d\	.
=147	=147	=147	=147
1D	2B-\]	2d\]	1f
.	1A	1f	.
1F	.	.	1a
.	[2c\	2c\	.
=148	=148	=148	=148
1E	2c\]	1e	2.g/
.	1G	.	.
.	.	.	4a/
1G	.	1d	4b-\
.	.	.	4cc\
.	2B-\	.	2dd\
=149	=149	=149	=149
1A	2A/	1f	2cc\
.	1c	.	2a/
1A	.	1e	4cc\
.	.	.	4b-\
.	2c\	.	4a/
.	.	.	4g/
=150	=150	=150	=150
1D	1d	2d\	2f/
.	.	2f\	2a/
2E\	2G/	2e\	2g/
2F\	2A/	2c\	2cc\
=151	=151	=151	=151
2G\	2B-\	2r	2b-\
2C/	2c\	1c	1a
1D	2.F/	.	.
.	.	2B-\	4g/
.	4G/	.	4f/
=152	=152	=152	=152
0C	2.A/	2.c\	2e/
.	.	.	2.f/
.	4B-\	4d\	.
.	1G	1c	.
.	.	.	4e/
.	.	.	4e/
.	.	.	4d/
=153	=153	=153	=153
0r	0F	1A	1f
.	.	2r	2r
.	.	2f\	2a/
=154	=154	=154	=154
0r	0r	2g\	2b-\
.	.	2f\	2a/
.	.	2g\	2b-\
.	.	2e\	2cc\
=155	=155	=155	=155
1r	1r	2f\	2a/
.	.	2d\	2b-\
2r	2r	2e\	2g/
2F\	2A/	2f\	[2a/
=156	=156	=156	=156
2G\	2B-\	2r	4a/]
.	.	.	4g/
2F\	2A/	2f\	2cc\
2G\	2B-\	2d\	2b-\
2E\	2c\	2e\	2g/
=157	=157	=157	=157
2F\	2A/	2c\	2a/
2D\	2B-\	2d\	2f/
2E\	2G/	2r	2b-\
[2F\	2A/	2d\	[2a/
=158	=158	=158	=158
4F\]	2r	2c\	4a/]
4E\	.	.	4g/
4D\	2A/	2d\	4f/
4C/	.	.	4e/
2BB-/	2B-\	2r	2d/
[2D\	2A/	2d\	[2f/
=159	=159	=159	=159
2D\]	2B-\	2f\	4f/]
.	.	.	4g/
2C/	1c	2e\	4a/
.	.	.	4b-\
1E-i	.	[1g	4cc\
.	.	.	4g/
.	2G/	.	[2b-\
=160	=160	=160	=160
0D	2.B-\	2g\]	2b-\]
.	.	2.f\	4a/
.	4c\	.	4g/
.	1A	.	4f#i/
.	.	4e\	4g/
.	.	4d\	4a/
.	.	4c\	4f#i/
=161	=161	=161	=161
0Gl	0Gl	0dl	0gl
==	==	==	==
*-	*-	*-	*-
!!!RDF**kern: l=long note in original notation
!!!RDF**kern: i=editorial accidental
!!!ENC: Jesse Rodin; Victoria Chang 2011/04/01/
!!!END: 2011/04/01/
!!!EED:	Jesse Rodin
!!!EEV:	2011/04/06/
!!attribution-level@Jos: 1 (secure)
!!!ONB:	Translated from MusicXML and edited on 2011/04/06/ by Craig Sapp
!!muse2ps: T^@{OPR}^u^@{ONM}{. }@{OTL}^C^@{COM}\n@{SCT}^i2I100v85,90,85,150Q16
!!onb: Metric symbol of measure 77 set to Men3 [2011/04/06/]
